X:2199
T:K\"allarvalvet Polska fr\an \"Ostra Ryd efter Axel Emil Lundgren
S:Hamburska
S:Efter Helén Eriksson
Z:[[http://www.bluerose.karenlmyers.org/IncipitsPolskaNarke3.html|Karen Myers (#2199)]]
Z:Upptecknad 6/2007
M:3/4
L:1/8
R:Polska
O:\"Ostra Ryd, N\"arke
K:G
B2 B>(d c>)A | (GF) (GA) B>B | A2 (A>B) c>c | B2 (Bc) d>d |
B2 B>(d c>)A | (GF) (GA) B>B | A2 (Ac) A>F | G2 G4 :|
|: (Bd/B/) (GD) G>B | (Bc/B/) A2 A>A | (Ac/A/) (FD) F>A | (ef/e/) d2 d>d |
(Bd/B/) (GD) G>B | (Bc/B/) A2 A>A | (Ac/A/) (FD) F>A | (AB) G4 :|
W: 1. N\"ar som jag stod upp\a ett k\"allarvalv,
W:    Hopp \a sunta lu \a hopp \a sunta lej,
W:    P\"arorna di runkte, rovorna di skalv,
W:    Hopp \a sunta lu och lejsen.
W:
W: 2. N\"ar som jag stod uti ett aletr\"ask,
W:    Hopp \a sunta lu \a hopp \a sunta lej,
W:    Rutiger rock \a fanken te v\"ast
W:    Hopp \a sunta lu och lejsen.
